icons/megaphone-24.svg

<svg xmlns="http://www.w3.org/2000/svg" width="24" height="24" viewBox="0 0 24 24"><path d="M22 1.75v14.5a.75.75 0 01-.399.662c-.384.204-.783-.035-1.139-.248l-.003-.002c-.09-.054-.177-.107-.261-.15a15.53 15.53 0 00-2-.849c-1.738-.607-4.321-1.223-7.703-1.251a.833.833 0 01.005.088c0 2.279.494 4.279.906 5.547.368 1.131-.438 2.453-1.732 2.453H7.661c-.696 0-1.36-.42-1.6-1.129C5.684 20.255 5 17.811 5 14.75v-.457A5.5 5.5 0 016.5 3.5h3.75c3.505 0 6.175-.61 7.955-1.21a15.88 15.88 0 002.002-.82 9.21 9.21 0 00.49-.262c.048-.028.095-.055.142-.085A.751.751 0 0122 1.75zM10.5 12.912c3.564.029 6.313.678 8.193 1.335.737.258 1.34.517 1.807.74V2.993c-.467.216-1.073.467-1.815.718-1.878.634-4.624 1.26-8.185 1.288zM6.5 5a4 4 0 000 8H9V5zm0 9.75c0 2.847.638 5.123.982 6.141.018.051.074.109.179.109h2.013c.087 0 .179-.043.249-.147a.396.396 0 00.057-.343C9.537 19.148 9 16.986 9 14.5H6.5z"/></svg>

<svg xmlns="http://www.w3.org/2000/svg" width="24" height="24" viewBox="0 0 24 24">
  <defs/>
  <path d="M22,1.75 L22,16.25 C22,16.527 21.846,16.782 21.601,16.912 C21.217,17.116 20.818,16.877 20.462,16.664 L20.459,16.662 C20.369,16.608 20.282,16.555 20.198,16.512 C19.757,16.283 19.088,15.975 18.198,15.663 C16.46,15.056 13.877,14.44 10.495,14.412 C10.498,14.44 10.5,14.47 10.5,14.5 C10.5,16.779 10.994,18.779 11.406,20.047 C11.774,21.178 10.968,22.5 9.674,22.5 L7.661,22.5 C6.965,22.5 6.301,22.08 6.061,21.371 C5.684,20.255 5,17.811 5,14.75 L5,14.293 C2.356,13.546 0.669,10.964 1.047,8.243 C1.425,5.522 3.753,3.497 6.5,3.5 L10.25,3.5 C13.755,3.5 16.425,2.89 18.205,2.29 C19.097,1.989 19.766,1.69 20.207,1.47 C20.373,1.388 20.536,1.3 20.697,1.208 C20.745,1.18 20.792,1.153 20.839,1.123 C21.069,0.972 21.364,0.96 21.606,1.09 C21.849,1.221 22,1.475 22,1.75 Z M10.5,12.912 C14.064,12.941 16.813,13.59 18.693,14.247 C19.43,14.505 20.033,14.764 20.5,14.987 L20.5,2.993 C20.033,3.209 19.427,3.46 18.685,3.711 C16.807,4.345 14.061,4.971 10.5,4.999 Z M6.5,5 C4.291,5 2.5,6.791 2.5,9 C2.5,11.209 4.291,13 6.5,13 L9,13 L9,5 Z M6.5,14.75 C6.5,17.597 7.138,19.873 7.482,20.891 C7.5,20.942 7.556,21 7.661,21 L9.674,21 C9.761,21 9.853,20.957 9.923,20.853 C9.994,20.753 10.015,20.627 9.98,20.51 C9.537,19.148 9,16.986 9,14.5 L6.5,14.5 Z"/>
</svg>
